X:1
T:Bishopthorpe, CM
T:Jeremiah Clarke (1670-1707)
T:Bishopthorpe, CM
T:Public Domain
C:Jeremiah Clarke (1670-1707)
Z:Public Domain
%%score ( 1 2 ) ( 3 4 )
L:1/8
M:3/4
K:G
V:1 treble 
V:2 treble 
V:3 bass 
V:4 bass 
V:1
 (dc) | B3 A [DG]2 | [DF]2 [CE]2 [Cc]2 | (BA G2) [DF]2 | [DG]4 [FA]2 | (B3 c) [Gd]2 | %6
 [Gd]2 [Ac]2 [GB]2 | [GB]2 [FA]2 [Ad]2 | [^Gd]2 [Ac]2 [GB]2 | [Ac]4 [Ec]2 | [Fc]2 [GB]2 [FA]2 | %11
 [FA]2 [GB]2 (dc) | (B3 A) (GF) | (EA) [DG]2 [DF]2 | [DG]4 |] %15
V:2
 F2 | G4 x2 | x6 | D4 x2 | x6 | G4 x2 | x6 | x6 | x6 | x6 | x6 | x4 D2 | D4 D2 | E2 x4 | x4 |] %15
V:3
 [D,D]2 | (D3 C) [B,,B,]2 | [C,G,]4 [E,G,]2 | (G,A, B,2) [C,A,]2 | [B,,G,]4 [A,,C]2 | %5
 [G,,D]4 [G,B,]2 | [E,E]2 [F,D]2 [G,D]2 | [D,D]4 [=F,D]2 | (B,2 E2) [E,E]2 | [A,,E]4 [A,,A,]2 | %10
 (A,2 D2) [D,C]2 | C2 B,2 [F,A,]2 | (G,3 A,) [B,,B,]2 | (G,C) [D,B,]2 [D,A,]2 | [G,,B,]4 |] %15
V:4
 x2 | G,4 x2 | x6 | D,4 x2 | x6 | x6 | x6 | x6 | E,4 x2 | x6 | D,4 x2 | G,4 x2 | G,4 x2 | C,2 x4 | %14
 x4 |] %15

